!!! OTL: Literature19
!!! Chapter: 5
!!! Section: I
!!! Page: 348
!!! Mode: 
!!! Encoder: DJB
**kern
*staff1
*I"Piano
=1-
*clefG2
*k[]
*C:
*M4/4
2g/
4e/
8c/L
8e/J
=2
4.d/
16f/LL
16e/JJ
2d/
=3
2e/
4c/
8e/L
8g/J
=4
4.g/
8f/
2e/
=5
2cc\
4a/
8f/L
8a/J
=6
2g/
4e/
8c/L
8e/J
=7
8.g/L
16c/Jk
2e/
4d/
=8
1c
==
*-
